images/1inch.svg

<svg height="250" viewBox="0 0 250 250" width="250" xmlns="http://www.w3.org/2000/svg"><path d="m125 248.339844c69.035156 0 125-53.28125 125-119.007813 0-65.726562-55.964844-119.007812-125-119.007812s-125 53.28125-125 119.007812c0 65.726563 55.964844 119.007813 125 119.007813zm0 0" fill="#ecf3ff"/><path d="m91.257812 56.742188-43.75-16.664063v5.953125l37.5 32.132812-2.5 33.320313-11.25 45.222656-15 20.230469 3.75 28.5625 18.75 2.382812 15-2.382812 15 2.382812 26.25-15.472656 5-24.992187 31.25-28.5625 13.75 9.523437 13.75 19.039063v38.082031l18.75-4.757812 18.75-39.273438 5-49.984375-67.5-94.015625-11.25-2.378906zm0 0" fill="#fff"/><g fill="#94a6c4"><path d="m24.992188 125.523438c.5-4.046876.75-8.09375 2-11.902344 3.5-15.707032 10.25-30.703125 20.25-42.839844 1.75-2.144531 3.25-4.046875 5.25-5.953125l-11.25-9.996094c-2 2.855469-4 5.710938-5.75 8.570313-9.25 15.230468-14.25 32.367187-15.5 49.269531-.5 4.28125-.25 8.566406-.25 12.613281 0 4.285156.5 8.332032 1.25 12.613282 1.25 8.332031 3.5 16.425781 6.5 24.042968-2-8.09375-3-16.1875-3.25-24.515625 0-3.808593 0-7.855469.75-11.902343zm0 0"/><path d="m76.242188 48.414062c-6.25-2.855468-15-6.664062-21.25-9.519531 5.75-5.238281 16.25-10.710937 25-14.28125-6.25 4.757813-6.25 14.757813-3.75 23.800781zm0 0"/><path d="m50.992188 88.867188c-3.5 8.332031-5.75 17.140624-6.5 25.707031-.25 2.140625-.5 4.285156-.25 6.425781 0 2.144531 0 4.285156.25 6.425781l.25 3.332031c0 .953126.25 2.144532.5 3.097657l1 6.425781.25-6.425781c0-.953125 0-2.144531.25-3.097657l.5-3.09375c.25-2.140624.75-4.28125 1-6.1875.25-2.140624 1-4.046874 1.5-5.949218 2.25-8.09375 6-15.472656 10.5-22.375 3-4.523438 6.5-8.566406 10.25-12.375l-9.75-8.808594c-4.25 5.476562-7.25 10.949219-9.75 16.898438zm0 0"/><path d="m195.753906 48.164062c-13.25-4.523437-18.5-3.09375-18.5-3.09375s-8.25 21.183594-39.75 22.609376c.25.238281 28.5 15.949218 58.25-19.515626zm0 0"/><path d="m204.753906 90.292969c-1.25 26.179687-22.5 35.941406-39 34.035156-9-1.191406-22.25 2.855469-22.25 2.855469l-16.75 27.609375-5.5 1.90625 9.5-16.660157s-22.5 7.851563-24.25 8.566407c-1.75.714843-8.75 10.472656-14.5 20.707031-1.25-7.140625-6-12.136719-6-12.375 0 1.191406 2.5 22.609375-.25 28.5625-2.75 6.1875-15 10.234375-15 10.234375l18 6.425781 1.25.476563 13.5-12.140625 5-18.089844 6.25-4.28125s15.5-1.667969 13.25 11.660156c-1 6.429688-8.5 5.953125-17 10.949219-5 2.855469-11.5 7.378906-14.75 10.472656l9 6.1875s10.75-1.664062 26-13.089843c15.5-11.898438 7.75-24.753907 7.75-24.753907l25.25-28.800781 16.5 1.191406s28.5 6.902344 37.75 32.609375c18.5-49.269531-11.25-81.878906-13.75-84.257812zm0 0"/></g><path d="m233.75 69.835938c4.5 1.902343 8 4.75 11.25 7.367187-22.5-74.261719-95.5-65.929687-97-65.453125 1.75-2.617188 8.25-6.664062 14.25-8.808594 0 0-31-10.472656-59.25 8.09375.5-4.285156 6-10.710937 6-10.710937-39 15.957031-41.5 34.996093-34 46.414062-6.25-2.855469-12.5-5.476562-18.75-8.332031-19.25-8.804688-35.75-16.183594-36.75-16.421875-1.75-.476563-2.5.238281-2.5.238281s-.75.714844.75 2.140625c22.75 21.660157 37.25 34.761719 61.5 55.933594-4 8.570313-4.5 12.855469-2.5 17.375 2.75 6.191406 2.5 9.285156 1.5 13.332031-1.25 4.046875-11.25 39.984375-13 44.03125-1.75 4.285156-15 18.566406-15.25 23.328125-.25 4.757813 3.75 25.703125 9.25 28.796875 4.25 2.144532 14.5 6.664063 22 7.617188 2.5.476562 5 .238281 6.25-.714844 5-3.09375 6.25-3.570312 9.5-3.332031l.75.238281c1.25.238281 2.75.714844 4.75.953125 4.25.476563 9.75.476563 14.25-2.378906 6.5-4.761719 17.5-10.710938 21.25-13.804688 4.5-4.285156 7.5-10.238281 7.5-16.902343 0-5.949219 4.25-10.710938 9-15.46875 4.5-4.285157 15.75-14.757813 20.25-19.28125 11.5 3.808593 15.75 19.519531 15.75 28.085937 0 23.804687-20.25 58.554687-66.75 61.171875-1.75 0-3.5.238281-5.5.238281-60.5 0-110-50.9375-110-110.679687 0-47.125 29.742188-79.039063 29.992188-79.277344-24 21.660156-38.242188 51.90625-38.242188 85.703125 0 65.695313 56 119.019531 125 119.019531s125-53.324218 125-119.019531c0-21.417969-5.75-42.117187-16.25-59.492187zm-170.75-15.242188c-3.5-2.855469-7-5.714844-10.5-8.570312 4.75 2.382812 9.5 4.761718 13.75 6.902343 13 6.425781 23.75 12.140625 25.75 13.566407 0 0 .25.238281.5.476562 1.25 1.429688 2.5 3.808594.25 6.902344-1.25 1.667968-2.75 1.191406-5-.238282-2-1.1875-12.75-9.28125-24.75-19.039062zm72.75 123.769531c0 4.042969-2 7.613281-4.5 10.234375-1.25 1.1875-6.25 4.28125-9.75 6.425782-3.5 2.378906-7.25 4.519531-10.25 6.664062-1.25.714844-3.25 1.191406-6.5.714844l-7.75-.953125c4.75-4.523438 17.75-14.28125 22-16.1875 5-2.378907 8-4.996094 5.75-10.472657-2-5.710937-9.75-5.472656-9.75-5.472656s4.75-1.191406 8.5-.714844c-4.75-1.902343-11.25-1.425781-14.5.714844-3.5 2.378906-4.5 12.140625-6.75 18.089844-2.25 6.1875-7.25 8.804688-14.75 13.804688-4.25 2.617187-7 3.332031-9 3.09375-4.25-1.191407-9.25-3.332032-12.75-4.996094-2-3.570313-4.5-14.757813-4.75-19.28125 1-2.378906 5-7.140625 7-9.996094 4-5.238281 6.25-8.332031 7.25-11.1875 1.75-4.046875 9-29.515625 11.75-40.226562 2.75 4.523437 6.5 12.140624 4.75 16.425781 9-9.046875 5-19.757813 3-24.039063-1.75-4.285156-3.75-12.617187.25-20.707031 3.75-8.09375 16.75-29.992187 16.75-29.992187s2.25 5.714843 7 5.238281c4.5-.476563 47.75-46.652344 47.75-46.652344s6.75 21.421875-5.75 34.511719-23 14.519531-23 14.519531 14 4.285156 28.5-2.855469c3.75 12.851563 7 26.179688 7 27.847656-1 1.664063-15 24.039063-16.25 25.46875-.5.472657-4.5.949219-7 .949219-4.5.714844-7.25.953125-8.5 1.667969-2 1.1875-13.5 21.898438-19 31.894531-5 .714844-10 2.378907-14 6.902344 2-.953125 7.75-.953125 12-.953125 3.75.238281 14 7.378906 15.25 18.566406zm-29.25 9.996094c2.75-2.859375 3.25-8.332031 3.75-9.996094.5-1.667969 1.5-4.761719 3.75-5s7 1.191407 6.5 4.761719c-.5 3.332031-4.25 3.570312-7.25 5.234375-2 1.191406-6.25 4.523437-6.75 5zm108.75 3.09375c-3-30.46875-25-44.75-34.75-49.507813 11.25-1.191406 40.25-9.519531 24.25-51.648437.5 1.902344 5 22.847656-7.75 33.796875-13 11.1875-32 6.425781-34.25 6.425781-2-.238281-11.5 8.570313-24.5 25.46875-1.25-.714843-6.5-2.617187-13-2.378906 6.5-11.664063 16.25-28.324219 17.75-29.753906.5-.476563 4.75-.953125 7.25-1.191407 5-.476562 7.5-.949218 8.5-1.902343.5-.714844 4-5.949219 7.5-11.664063 2.25.238282 8.25.714844 9 .476563.5-.476563 7.25-11.902344 7.5-13.328125.25-.953125-4.5-18.804688-7.5-30.226563 61.75 27.847657 71.5 89.253907 40 125.433594zm0 0" fill="#1c324f"/><path d="m155.75 49.832031c7-5.949219 6-16.183593 6-16.183593l-21 22.132812c-.25 0 6.25 1.191406 15-5.949219zm0 0" fill="#1c324f"/><path d="m77.25 175.742188 3.5-9.519532s-10.75 13.089844-11.75 14.996094c-1 2.140625-.5 6.1875 3 6.425781s8.25-4.046875 8.75-7.378906c.75-4.523437-3.5-4.523437-3.5-4.523437zm0 0" fill="#1c324f"/><path d="m110.25 118.144531c7.5-.714843 21-6.429687 26.75-10.949219 5.75-4.761718 4.75-15.234374-4.25-18.328124 3-4.761719 8-14.757813 8-14.757813s-32.25 35.941406-34.75 36.417969c-2.5.476562-3.5-8.570313-3.5-8.570313-7.5 17.375 5.25 21.660157 7.75 16.1875zm0 0" fill="#1c324f"/><path d="m112.996094 113.621094 16.75-20.230469s7.25 4.761719 2.5 10.234375c-6 6.425781-19.25 9.996094-19.25 9.996094zm0 0" fill="#ffd925"/><path d="m157.515625 23.414062-11.5 11.902344c-9.25 2.617188-18.25 7.375-26.75 15.230469 0-4.523437 13.75-24.277344 38.25-27.132813zm0 0" fill="#d82423"/><path d="m172.015625 33.648438c.25-3.09375 0-6.664063-.5-9.996094 15 1.902344 32.75 10.234375 53 29.039062-16.75-8.808594-34.5-16.902344-52.5-19.042968zm0 0" fill="#d82423"/><path d="m176.515625 49.121094s55.75 23.324218 66 88.777344c1.5-85.207032-62-89.492188-66-88.777344zm0 0" fill="#d82423"/><path d="m95.265625 11.511719c-.75 1.90625-32.25 34.039062 7 46.652343-21.5-18.328124-7.25-46.414062-7-46.652343zm0 0" fill="#d82423"/><path d="m112.015625 53.164062s3.25-36.414062 26.25-46.171874c-1.75.472656-48.5 14.042968-26.25 46.171874zm0 0" fill="#d82423"/></svg>

<svg xmlns="http://www.w3.org/2000/svg" xmlns:xlink="http://www.w3.org/1999/xlink" width="250px" height="250px" viewBox="0 0 250 250" version="1.1">
<g id="surface1">
<path style=" stroke:none;fill-rule:nonzero;fill:rgb(92.54902%,95.294118%,100%);fill-opacity:1;" d="M 125 248.339844 C 194.035156 248.339844 250 195.058594 250 129.332031 C 250 63.605469 194.035156 10.324219 125 10.324219 C 55.964844 10.324219 0 63.605469 0 129.332031 C 0 195.058594 55.964844 248.339844 125 248.339844 Z M 125 248.339844 "/>
<path style=" stroke:none;fill-rule:nonzero;fill:rgb(100%,100%,100%);fill-opacity:1;" d="M 91.257812 56.742188 L 47.507812 40.078125 L 47.507812 46.03125 L 85.007812 78.164062 L 82.507812 111.484375 L 71.257812 156.707031 L 56.257812 176.9375 L 60.007812 205.5 L 78.757812 207.882812 L 93.757812 205.5 L 108.757812 207.882812 L 135.007812 192.410156 L 140.007812 167.417969 L 171.257812 138.855469 L 185.007812 148.378906 L 198.757812 167.417969 L 198.757812 205.5 L 217.507812 200.742188 L 236.257812 161.46875 L 241.257812 111.484375 L 173.757812 17.46875 L 162.507812 15.089844 Z M 91.257812 56.742188 "/>
<path style=" stroke:none;fill-rule:nonzero;fill:rgb(58.039218%,65.098041%,76.862746%);fill-opacity:1;" d="M 24.992188 125.523438 C 25.492188 121.476562 25.742188 117.429688 26.992188 113.621094 C 30.492188 97.914062 37.242188 82.917969 47.242188 70.78125 C 48.992188 68.636719 50.492188 66.734375 52.492188 64.828125 L 41.242188 54.832031 C 39.242188 57.6875 37.242188 60.542969 35.492188 63.402344 C 26.242188 78.632812 21.242188 95.769531 19.992188 112.671875 C 19.492188 116.953125 19.742188 121.238281 19.742188 125.285156 C 19.742188 129.570312 20.242188 133.617188 20.992188 137.898438 C 22.242188 146.230469 24.492188 154.324219 27.492188 161.941406 C 25.492188 153.847656 24.492188 145.753906 24.242188 137.425781 C 24.242188 133.617188 24.242188 129.570312 24.992188 125.523438 Z M 24.992188 125.523438 "/>
<path style=" stroke:none;fill-rule:nonzero;fill:rgb(58.039218%,65.098041%,76.862746%);fill-opacity:1;" d="M 76.242188 48.414062 C 69.992188 45.558594 61.242188 41.75 54.992188 38.894531 C 60.742188 33.65625 71.242188 28.183594 79.992188 24.613281 C 73.742188 29.371094 73.742188 39.371094 76.242188 48.414062 Z M 76.242188 48.414062 "/>
<path style=" stroke:none;fill-rule:nonzero;fill:rgb(58.039218%,65.098041%,76.862746%);fill-opacity:1;" d="M 50.992188 88.867188 C 47.492188 97.199219 45.242188 106.007812 44.492188 114.574219 C 44.242188 116.714844 43.992188 118.859375 44.242188 121 C 44.242188 123.144531 44.242188 125.285156 44.492188 127.425781 L 44.742188 130.757812 C 44.742188 131.710938 44.992188 132.902344 45.242188 133.855469 L 46.242188 140.28125 L 46.492188 133.855469 C 46.492188 132.902344 46.492188 131.710938 46.742188 130.757812 L 47.242188 127.664062 C 47.492188 125.523438 47.992188 123.382812 48.242188 121.476562 C 48.492188 119.335938 49.242188 117.429688 49.742188 115.527344 C 51.992188 107.433594 55.742188 100.054688 60.242188 93.152344 C 63.242188 88.628906 66.742188 84.585938 70.492188 80.777344 L 60.742188 71.96875 C 56.492188 77.445312 53.492188 82.917969 50.992188 88.867188 Z M 50.992188 88.867188 "/>
<path style=" stroke:none;fill-rule:nonzero;fill:rgb(58.039218%,65.098041%,76.862746%);fill-opacity:1;" d="M 195.753906 48.164062 C 182.503906 43.640625 177.253906 45.070312 177.253906 45.070312 C 177.253906 45.070312 169.003906 66.253906 137.503906 67.679688 C 137.753906 67.917969 166.003906 83.628906 195.753906 48.164062 Z M 195.753906 48.164062 "/>
<path style=" stroke:none;fill-rule:nonzero;fill:rgb(58.039218%,65.098041%,76.862746%);fill-opacity:1;" d="M 204.753906 90.292969 C 203.503906 116.472656 182.253906 126.234375 165.753906 124.328125 C 156.753906 123.136719 143.503906 127.183594 143.503906 127.183594 L 126.753906 154.792969 L 121.253906 156.699219 L 130.753906 140.039062 C 130.753906 140.039062 108.253906 147.890625 106.503906 148.605469 C 104.753906 149.320312 97.753906 159.078125 92.003906 169.3125 C 90.753906 162.171875 86.003906 157.175781 86.003906 156.9375 C 86.003906 158.128906 88.503906 179.546875 85.753906 185.5 C 83.003906 191.6875 70.753906 195.734375 70.753906 195.734375 L 88.753906 202.160156 L 90.003906 202.636719 L 103.503906 190.496094 L 108.503906 172.40625 L 114.753906 168.125 C 114.753906 168.125 130.253906 166.457031 128.003906 179.785156 C 127.003906 186.214844 119.503906 185.738281 111.003906 190.734375 C 106.003906 193.589844 99.503906 198.113281 96.253906 201.207031 L 105.253906 207.394531 C 105.253906 207.394531 116.003906 205.730469 131.253906 194.304688 C 146.753906 182.40625 139.003906 169.550781 139.003906 169.550781 L 164.253906 140.75 L 180.753906 141.941406 C 180.753906 141.941406 209.253906 148.84375 218.503906 174.550781 C 237.003906 125.28125 207.253906 92.671875 204.753906 90.292969 Z M 204.753906 90.292969 "/>
<path style=" stroke:none;fill-rule:nonzero;fill:rgb(10.980392%,19.607843%,30.980393%);fill-opacity:1;" d="M 233.75 69.835938 C 238.25 71.738281 241.75 74.585938 245 77.203125 C 222.5 2.941406 149.5 11.273438 148 11.75 C 149.75 9.132812 156.25 5.085938 162.25 2.941406 C 162.25 2.941406 131.25 -7.53125 103 11.035156 C 103.5 6.75 109 0.324219 109 0.324219 C 70 16.28125 67.5 35.320312 75 46.738281 C 68.75 43.882812 62.5 41.261719 56.25 38.40625 C 37 29.601562 20.5 22.222656 19.5 21.984375 C 17.75 21.507812 17 22.222656 17 22.222656 C 17 22.222656 16.25 22.9375 17.75 24.363281 C 40.5 46.023438 55 59.125 79.25 80.296875 C 75.25 88.867188 74.75 93.152344 76.75 97.671875 C 79.5 103.863281 79.25 106.957031 78.25 111.003906 C 77 115.050781 67 150.988281 65.25 155.035156 C 63.5 159.320312 50.25 173.601562 50 178.363281 C 49.75 183.121094 53.75 204.066406 59.25 207.160156 C 63.5 209.304688 73.75 213.824219 81.25 214.777344 C 83.75 215.253906 86.25 215.015625 87.5 214.0625 C 92.5 210.96875 93.75 210.492188 97 210.730469 L 97.75 210.96875 C 99 211.207031 100.5 211.683594 102.5 211.921875 C 106.75 212.398438 112.25 212.398438 116.75 209.542969 C 123.25 204.78125 134.25 198.832031 138 195.738281 C 142.5 191.453125 145.5 185.5 145.5 178.835938 C 145.5 172.886719 149.75 168.125 154.5 163.367188 C 159 159.082031 170.25 148.609375 174.75 144.085938 C 186.25 147.894531 190.5 163.605469 190.5 172.171875 C 190.5 195.976562 170.25 230.726562 123.75 233.34375 C 122 233.34375 120.25 233.582031 118.25 233.582031 C 57.75 233.582031 8.25 182.644531 8.25 122.902344 C 8.25 75.777344 37.992188 43.863281 38.242188 43.625 C 14.242188 65.285156 0 95.53125 0 129.328125 C 0 195.023438 56 248.347656 125 248.347656 C 194 248.347656 250 195.023438 250 129.328125 C 250 107.910156 244.25 87.210938 233.75 69.835938 Z M 63 54.59375 C 59.5 51.738281 56 48.878906 52.5 46.023438 C 57.25 48.40625 62 50.785156 66.25 52.925781 C 79.25 59.351562 90 65.066406 92 66.492188 C 92 66.492188 92.25 66.730469 92.5 66.96875 C 93.75 68.398438 95 70.777344 92.75 73.871094 C 91.5 75.539062 90 75.0625 87.75 73.632812 C 85.75 72.445312 75 64.351562 63 54.59375 Z M 135.75 178.363281 C 135.75 182.40625 133.75 185.976562 131.25 188.597656 C 130 189.785156 125 192.878906 121.5 195.023438 C 118 197.402344 114.25 199.542969 111.25 201.6875 C 110 202.402344 108 202.878906 104.75 202.402344 L 97 201.449219 C 101.75 196.925781 114.75 187.167969 119 185.261719 C 124 182.882812 127 180.265625 124.75 174.789062 C 122.75 169.078125 115 169.316406 115 169.316406 C 115 169.316406 119.75 168.125 123.5 168.601562 C 118.75 166.699219 112.25 167.175781 109 169.316406 C 105.5 171.695312 104.5 181.457031 102.25 187.40625 C 100 193.59375 95 196.210938 87.5 201.210938 C 83.25 203.828125 80.5 204.542969 78.5 204.304688 C 74.25 203.113281 69.25 200.972656 65.75 199.308594 C 63.75 195.738281 61.25 184.550781 61 180.027344 C 62 177.648438 66 172.886719 68 170.03125 C 72 164.792969 74.25 161.699219 75.25 158.84375 C 77 154.796875 84.25 129.328125 87 118.617188 C 89.75 123.140625 93.5 130.757812 91.75 135.042969 C 100.75 125.996094 96.75 115.285156 94.75 111.003906 C 93 106.71875 91 98.386719 95 90.296875 C 98.75 82.203125 111.75 60.304688 111.75 60.304688 C 111.75 60.304688 114 66.019531 118.75 65.542969 C 123.25 65.066406 166.5 18.890625 166.5 18.890625 C 166.5 18.890625 173.25 40.3125 160.75 53.402344 C 148.25 66.492188 137.75 67.921875 137.75 67.921875 C 137.75 67.921875 151.75 72.207031 166.25 65.066406 C 170 77.917969 173.25 91.246094 173.25 92.914062 C 172.25 94.578125 158.25 116.953125 157 118.382812 C 156.5 118.855469 152.5 119.332031 150 119.332031 C 145.5 120.046875 142.75 120.285156 141.5 121 C 139.5 122.1875 128 142.898438 122.5 152.894531 C 117.5 153.609375 112.5 155.273438 108.5 159.796875 C 110.5 158.84375 116.25 158.84375 120.5 158.84375 C 124.25 159.082031 134.5 166.222656 135.75 177.410156 C 135.75 178.125 135.75 178.125 135.75 178.363281 Z M 106.5 188.359375 C 109.25 185.5 109.75 180.027344 110.25 178.363281 C 110.75 176.695312 111.75 173.601562 114 173.363281 C 116.25 173.125 121 174.554688 120.5 178.125 C 120 181.457031 116.25 181.695312 113.25 183.359375 C 111.25 184.550781 107 187.882812 106.5 188.359375 Z M 215.25 191.453125 C 212.25 160.984375 190.25 146.703125 180.5 141.945312 C 191.75 140.753906 220.75 132.425781 204.75 90.296875 C 205.25 92.199219 209.75 113.144531 197 124.09375 C 184 135.28125 165 130.519531 162.75 130.519531 C 160.75 130.28125 151.25 139.089844 138.25 155.988281 C 137 155.273438 131.75 153.371094 125.25 153.609375 C 131.75 141.945312 141.5 125.285156 143 123.855469 C 143.5 123.378906 147.75 122.902344 150.25 122.664062 C 155.25 122.1875 157.75 121.714844 158.75 120.761719 C 159.25 120.046875 162.75 114.8125 166.25 109.097656 C 168.5 109.335938 174.5 109.8125 175.25 109.574219 C 175.75 109.097656 182.5 97.671875 182.75 96.246094 C 183 95.292969 178.25 77.441406 175.25 66.019531 C 237 93.867188 246.75 155.273438 215.25 191.453125 Z M 215.25 191.453125 "/>
<path style=" stroke:none;fill-rule:nonzero;fill:rgb(10.980392%,19.607843%,30.980393%);fill-opacity:1;" d="M 155.75 49.832031 C 162.75 43.882812 161.75 33.648438 161.75 33.648438 L 140.75 55.78125 C 140.5 55.78125 147 56.972656 155.75 49.832031 Z M 155.75 49.832031 "/>
<path style=" stroke:none;fill-rule:nonzero;fill:rgb(10.980392%,19.607843%,30.980393%);fill-opacity:1;" d="M 77.25 175.742188 L 80.75 166.222656 C 80.75 166.222656 70 179.3125 69 181.21875 C 68 183.359375 68.5 187.40625 72 187.644531 C 75.5 187.882812 80.25 183.597656 80.75 180.265625 C 81.5 175.742188 77.25 175.742188 77.25 175.742188 Z M 77.25 175.742188 "/>
<path style=" stroke:none;fill-rule:nonzero;fill:rgb(10.980392%,19.607843%,30.980393%);fill-opacity:1;" d="M 110.25 118.144531 C 117.75 117.429688 131.25 111.714844 137 107.195312 C 142.75 102.433594 141.75 91.960938 132.75 88.867188 C 135.75 84.105469 140.75 74.109375 140.75 74.109375 C 140.75 74.109375 108.5 110.050781 106 110.527344 C 103.5 111.003906 102.5 101.957031 102.5 101.957031 C 95 119.332031 107.75 123.617188 110.25 118.144531 Z M 110.25 118.144531 "/>
<path style=" stroke:none;fill-rule:nonzero;fill:rgb(100%,85.09804%,14.509805%);fill-opacity:1;" d="M 112.996094 113.621094 L 129.746094 93.390625 C 129.746094 93.390625 136.996094 98.152344 132.246094 103.625 C 126.246094 110.050781 112.996094 113.621094 112.996094 113.621094 Z M 112.996094 113.621094 "/>
<path style=" stroke:none;fill-rule:nonzero;fill:rgb(84.705883%,14.117648%,13.725491%);fill-opacity:1;" d="M 157.515625 23.414062 L 146.015625 35.316406 C 136.765625 37.933594 127.765625 42.691406 119.265625 50.546875 C 119.265625 46.023438 133.015625 26.269531 157.515625 23.414062 Z M 157.515625 23.414062 "/>
<path style=" stroke:none;fill-rule:nonzero;fill:rgb(84.705883%,14.117648%,13.725491%);fill-opacity:1;" d="M 172.015625 33.648438 C 172.265625 30.554688 172.015625 26.984375 171.515625 23.652344 C 186.515625 25.554688 204.265625 33.886719 224.515625 52.691406 C 207.765625 43.882812 190.015625 35.789062 172.015625 33.648438 Z M 172.015625 33.648438 "/>
<path style=" stroke:none;fill-rule:nonzero;fill:rgb(84.705883%,14.117648%,13.725491%);fill-opacity:1;" d="M 176.515625 49.121094 C 176.515625 49.121094 232.265625 72.445312 242.515625 137.898438 C 244.015625 52.691406 180.515625 48.40625 176.515625 49.121094 Z M 176.515625 49.121094 "/>
<path style=" stroke:none;fill-rule:nonzero;fill:rgb(84.705883%,14.117648%,13.725491%);fill-opacity:1;" d="M 95.265625 11.511719 C 94.515625 13.417969 63.015625 45.550781 102.265625 58.164062 C 80.765625 39.835938 95.015625 11.75 95.265625 11.511719 Z M 95.265625 11.511719 "/>
<path style=" stroke:none;fill-rule:nonzero;fill:rgb(84.705883%,14.117648%,13.725491%);fill-opacity:1;" d="M 112.015625 53.164062 C 112.015625 53.164062 115.265625 16.75 138.265625 6.992188 C 136.515625 7.464844 89.765625 21.035156 112.015625 53.164062 Z M 112.015625 53.164062 "/>
</g>
</svg>
